assets/img/braze_icons/thumbs-down.svg

<svg fill="none" height="24" viewBox="0 0 24 24" width="24" xmlns="http://www.w3.org/2000/svg"><path d="m16 2.6c0-.56005 0-.84008-.109-1.05399-.0959-.18816-.2488-.34114-.437-.43702-.2139-.10899-.4939-.10899-1.054-.10899h-6.31949c-.69873-.000009-1.27893-.000018-1.75624.03632-.49837.03793-.95777.11929-1.40131.32026-.69357.31427-1.28304.81999-1.69912 1.45771-.26607.40781-.41634.8495-.52962 1.33631-.10849.46625-.1967 1.03965-.30294 1.7303l-.5356 3.4814c-.14078.915-.25619 1.6651-.29701 2.2773-.04212.6316-.01457 1.221.2009 1.7859.33085.8674.95313 1.5928 1.76016 2.0517.52558.2988 1.10391.4157 1.7346.4701.61129.0527 1.37018.0527 2.29593.0527h.84985c.29653 0 .45878.0008.57537.0103l.01318.0012.00115.0131c.00952.1166.0103.2789.0103.5754v2.9342c0 1.9141 1.55169 3.4658 3.46579 3.4658.7201 0 1.3725-.424 1.665-1.082l3.3607-7.5617c.0816-.1834.1241-.278.159-.3447l.0031-.0058.0067-.0005c.075-.0048.1788-.0053.3795-.0053h.7987c.5272 0 .982 0 1.3565-.0306.3954-.0323.7886-.1036 1.167-.2964.5645-.2876 1.0234-.7465 1.311-1.311.1928-.3784.2641-.7716.2964-1.167.0306-.3745.0306-.8293.0306-1.35643v-4.67713c0-.52714 0-.9819-.0306-1.35647-.0323-.39534-.1036-.78856-.2964-1.16694-.2876-.56449-.7465-1.02343-1.311-1.31105-.3784-.19279-.7716-.26411-1.167-.29641-.3745-.030601-.8293-.030586-1.3564-.03057-.4632 0-.8387.3755-.8387.8387v8.1613c0 .5523-.4477 1-1 1s-1-.4477-1-1z" fill="#801ed7"/></svg>

<svg width="24" height="24" viewBox="0 0 24 24" fill="none" xmlns="http://www.w3.org/2000/svg">
<path d="M16 2.6C16 2.03995 16 1.75992 15.891 1.54601C15.7951 1.35785 15.6422 1.20487 15.454 1.10899C15.2401 1 14.9601 1 14.4 1H8.08051C7.38178 0.999991 6.80158 0.999982 6.32427 1.03632C5.8259 1.07425 5.3665 1.15561 4.92296 1.35658C4.22939 1.67085 3.63992 2.17657 3.22384 2.81429C2.95777 3.2221 2.8075 3.66379 2.69422 4.1506C2.58573 4.61685 2.49752 5.19025 2.39128 5.8809L1.85568 9.3623C1.7149 10.2773 1.59949 11.0274 1.55867 11.6396C1.51655 12.2712 1.5441 12.8606 1.75957 13.4255C2.09042 14.2929 2.7127 15.0183 3.51973 15.4772C4.04531 15.776 4.62364 15.8929 5.25433 15.9473C5.86562 16 6.62451 16 7.55026 16H8.40011C8.69664 16 8.85889 16.0008 8.97548 16.0103L8.98866 16.0115L8.98981 16.0246C8.99933 16.1412 9.00011 16.3035 9.00011 16.6V19.5342C9.00011 21.4483 10.5518 23 12.4659 23C13.186 23 13.8384 22.576 14.1309 21.918L17.4916 14.3563C17.5732 14.1729 17.6157 14.0783 17.6506 14.0116L17.6537 14.0058L17.6604 14.0053C17.7354 14.0005 17.8392 14 18.0399 14H18.8386C19.3658 14 19.8206 14 20.1951 13.9694C20.5905 13.9371 20.9837 13.8658 21.3621 13.673C21.9266 13.3854 22.3855 12.9265 22.6731 12.362C22.8659 11.9836 22.9372 11.5904 22.9695 11.195C23.0001 10.8205 23.0001 10.3657 23.0001 9.83857V5.16144C23.0001 4.6343 23.0001 4.17954 22.9695 3.80497C22.9372 3.40963 22.8659 3.01641 22.6731 2.63803C22.3855 2.07354 21.9266 1.6146 21.3621 1.32698C20.9837 1.13419 20.5905 1.06287 20.1951 1.03057C19.8206 0.999969 19.3658 0.999984 18.8387 1C18.3755 1 18 1.3755 18 1.8387V10C18 10.5523 17.5523 11 17 11C16.4477 11 16 10.5523 16 10V2.6Z" fill="#801ED7"/>
</svg>
